X: 53
T:Macpherson's Blade
M:2/4
L:1/16
Q:112
C:J. Scott Skinner
S:The Pink Book
R:March
D:Songs from the Cap
K:EM % 1 sharp
|:B2|"Em"{^d}[e4e4] EFGA|"B"B2B,2 "Em"E4|"Am"c3B A2G2|"B"F2E2 ^D2B2|"Em"
g4 GABc|"D"d2D2 "G"G2B2|"Em"e2fg
 "B"f2g2|"Em"e4- e2:|!
B2 |"Em"e2fg "B"f2b2|"Em"b4 e2A2|"D"d2ef "A"e2a2|"D"a4 d2B2|"Em"e2fg f2g
2|"Am"efge "Em"b2B2|eBGE "B"B2^d2|"Em"e
4- e2||!
B2 |"Em"e2fg "B"f2g2|"Em"e6 A2|"D"d2ef "A"e2f2|"D"d6 ef|"G"gfed g2G2|"Am
"A2Bc "B"B2^d2|"Em"eBGE "B"B2B,2|"Em"E4-
E2|]
% <A name="D1X054">
